!!!!SEGMENT: Wil2041-Beata_viscera_Maria_virginis.krn
!!!id: Wil2041
!!!AGN: Motet
!!!SCT: Zenck (1952)
!!!voices: 6
!!!COM: Adrian Willaert
!!!OTL:  Beata viscera Maria virginis
**kern	**kern	**kern	**kern	**kern	**kern
*part6	*part5	*part4	*part3	*part2	*part1
*staff6	*staff5	*staff4	*staff3	*staff2	*staff1
*I"Bassus	*I"Tenor II	*I"Tenor I	*I"Altus II	*I"Altus I	*I"Superius
*I'B	*I'T. II	*I'T. I	*I'A. II	*I'A. I	*I'S
*clefF4	*clefGv2	*clefGv2	*clefG2	*clefG2	*clefG2
*k[b-]	*k[b-]	*k[b-]	*k[b-]	*k[b-]	*k[b-]
*F:	*F:	*F:	*F:	*F:	*F:
*M2/1	*M2/1	*M2/1	*M2/1	*M2/1	*M2/1
*met(C|)	*met(C|)	*met(C|)	*met(C|)	*met(C|)	*met(C|)
=1	=1	=1	=1	=1	=1
!	!	!	!LO:TX:a:t=Canon&colon; altus II/tenor II at the fifth	!	!
!!section: Prima pars: Beata viscera Maria virginis
!!!OMD: Prima pars: Beata viscera Maria virginis
0G	0r	0r	0r	0r	0r
=2	=2	=2	=2	=2	=2
1B-y	0r	0G	0r	0r	0r
2.B-y	.	.	.	.	.
4A	.	.	.	.	.
=3	=3	=3	=3	=3	=3
4G	0r	1B-y	0r	0d	0r
4F	.	.	.	.	.
1G	.	.	.	.	.
.	.	[1B-y	.	.	.
4F	.	.	.	.	.
4E	.	.	.	.	.
=4	=4	=4	=4	=4	=4
0D	0r	2B-]	0r	1f	0r
.	.	4A	.	.	.
.	.	4G	.	.	.
.	.	2A	.	[1f	.
.	.	2B-y	.	.	.
=5	=5	=5	=5	=5	=5
1.C	0r	2.c	0r	2f]	0r
.	.	.	.	4e	.
.	.	4B-y	.	4d	.
.	.	1A	.	2e	.
2D	.	.	.	2f	.
=6	=6	=6	=6	=6	=6
2E	0r	2G	0r	1.g	0r
2C	.	2.e	.	.	.
2G	.	.	.	.	.
.	.	4d	.	.	.
2A	.	[2c	.	2f	.
=7	=7	=7	=7	=7	=7
1G	0r	2c]	0r	2e	0g
.	.	2B-y	.	2d	.
1C	.	1c	.	1e	.
=8	=8	=8	=8	=8	=8
1.G	0r	1r	0r	0d	0b-y
.	.	[1G	.	.	.
2A	.	.	.	.	.
=9	=9	=9	=9	=9	=9
2.B-y	0r	2G]	0r	1.d	0b-y
.	.	2A	.	.	.
4A	.	.	.	.	.
1G	.	2.B-y	.	.	.
.	.	.	.	2e	.
.	.	4c	.	.	.
=10	=10	=10	=10	=10	=10
2D	0r	2d	0r	2.f	0a
2.F	.	2c	.	.	.
.	.	.	.	4e	.
.	.	2A	.	4d	.
4E	.	.	.	4c	.
4D	.	[2d	.	[2f	.
4C	.	.	.	.	.
=11	=11	=11	=11	=11	=11
2BB-y	0r	4d]	0d	4f]	1r
.	.	4c	.	4g	.
2F	.	2A	.	1a	.
1G	.	1B-y	.	.	1b-y
.	.	.	.	2g	.
=12	=12	=12	=12	=12	=12
1.F	0r	2.A	0f	2a	1.cc
.	.	.	.	4A	.
.	.	4G	.	4B-y	.
.	.	2A	.	4c	.
.	.	.	.	4A	.
2BB-y	.	2B-y	.	[2d	2b-y
=13	=13	=13	=13	=13	=13
2.D	0r	2F	0f	2d]	2.a
.	.	2.F	.	2d	.
4E	.	.	.	.	4g
1F	.	.	.	2c	1a
.	.	4G	.	.	.
.	.	4A	.	[2c	.
.	.	4B-y	.	.	.
=14	=14	=14	=14	=14	=14
0C	0G	2c	0e	4c]	2g
.	.	.	.	4d	.
.	.	2G	.	4e	2.cc
.	.	.	.	4f	.
.	.	2.c	.	4g	.
.	.	.	.	4c	4dd
.	.	.	.	[2g	4ee
.	.	4B-y	.	.	4cc
=15	=15	=15	=15	=15	=15
0r	0B-y	2G	1r	2g]	2.dd
.	.	2.d	.	2f	.
.	.	.	.	.	4ee
.	.	.	1f	1d	2ff
.	.	4c	.	.	.
.	.	4B-y	.	.	[2dd
.	.	4A	.	.	.
=16	=16	=16	=16	=16	=16
0r	0B-y	1G	1g	2r	2dd]
.	.	.	.	2.d	2.b-y
.	.	1d	2g	.	.
.	.	.	.	4e	4cc
.	.	.	[2f	4f	4dd
.	.	.	.	4g	4b-y
=17	=17	=17	=17	=17	=17
2r	0A	1r	2f]	2a	2cc
2D	.	.	4e	2.a	1dd
.	.	.	4d	.	.
1A	.	2r	1e	.	.
.	.	.	.	4g	.
.	.	[2A	.	2e	2cc#i
=18	=18	=18	=18	=18	=18
2D	1r	2A]	0d	2f	0dd
2.G	.	2.B-y	.	2g	.
.	1B-y	.	.	2d	.
8FL	.	4A	.	.	.
8EJ	.	.	.	.	.
2D	.	2F	.	2f	.
=19	=19	=19	=19	=19	=19
2.C	1c	2G	0r	2e	1.ee
.	.	2A	.	2c	.
4D	.	.	.	.	.
4E	2c	1G	.	2.g	.
4F	.	.	.	.	.
[2G	[2B-y	.	.	.	2dd
.	.	.	.	4f	.
=20	=20	=20	=20	=20	=20
2G]	2B-]	2.B-y	0r	2d	[0dd
2G	4A	.	.	1g	.
.	4G	4c	.	.	.
1D	1A	1d	.	.	.
.	.	.	.	2f	.
=21	=21	=21	=21	=21	=21
2r	0G	1r	0r	2g	0dd]
2G	.	.	.	2.b-y	.
1G	.	1B-y	.	.	.
.	.	.	.	4a	.
.	.	.	.	[2g	.
=22	=22	=22	=22	=22	=22
1A	0r	2.c	0r	2g]	1r
.	.	.	.	2f#i	.
.	.	4d	.	.	.
1G	.	2e-i	.	2.g	[1b-y
.	.	[2d	.	.	.
.	.	.	.	8fLny	.
.	.	.	.	8eJ	.
=23	=23	=23	=23	=23	=23
2.G	0r	4d]	0r	1d	1b-]
.	.	4c	.	.	.
.	.	1B-y	.	.	.
4F	.	.	.	.	.
2E	.	.	.	1r	1cc
2F	.	2A	.	.	.
=24	=24	=24	=24	=24	=24
1BB-y	0r	2.B-y	0r	0f	1dd
.	.	4c	.	.	.
2.B-y	.	4d	.	.	1dd
.	.	4e	.	.	.
.	.	[2f	.	.	.
4A	.	.	.	.	.
=25	=25	=25	=25	=25	=25
1G	0r	4f]	1r	1g	1b-y
.	.	4e	.	.	.
.	.	4e	.	.	.
.	.	4d	.	.	.
1F	.	2.f	[1f	[1a	1cc
.	.	4e	.	.	.
=26	=26	=26	=26	=26	=26
1r	0r	4d	1f]	2a]	1.dd
.	.	4c	.	.	.
.	.	4B-y	.	2.b-y	.
.	.	4A	.	.	.
2r	.	2G	[1g	.	.
.	.	.	.	4a	.
2C	.	2c	.	[2g	[2ee
=27	=27	=27	=27	=27	=27
2G	0r	2.B-y	1g]	4g]	4ee]
.	.	.	.	4f	4dd
2B-y	.	.	.	2d	1dd
.	.	4G	.	.	.
1A	.	2c	[1a	2e	.
.	.	2A	.	2e	2cc
=28	=28	=28	=28	=28	=28
2D	1r	2.f	1a]	1d	2dd
2.d	.	.	.	.	2.ff
.	.	4e	.	.	.
.	[1B-y	[1d	1f	2r	.
4c	.	.	.	.	4ee
4B-y	.	.	.	[2b-y	[2dd
4A	.	.	.	.	.
=29	=29	=29	=29	=29	=29
1G	1B-]	2d]	0g	4b-]	2dd]
.	.	.	.	4a	.
.	.	2d	.	4g	2b-y
.	.	.	.	4f	.
1C	[1c	2.c	.	2e	2g
.	.	.	.	2e	[2cc
.	.	4B-y	.	.	.
=30	=30	=30	=30	=30	=30
2.F	1c]	2A	1.a	1f	4cc]
.	.	.	.	.	4b-y
.	.	2.f	.	.	4a
4E	.	.	.	.	4g
2D	[1d	.	.	1r	2f
.	.	4e	.	.	.
[2G	.	4d	[2b-y	.	[2g
.	.	4c	.	.	.
=31	=31	=31	=31	=31	=31
2G]	1d]	2B-y	4b-]	0r	2g]
.	.	.	4a	.	.
2D	.	1f	1a	.	2a
1G	1B-y	.	.	.	1b-y
.	.	2e	2g	.	.
=32	=32	=32	=32	=32	=32
0F	0c	2f	0a	2r	1a
.	.	4F	.	2f	.
.	.	4G	.	.	.
.	.	4A	.	2c	1cc
.	.	4B-y	.	.	.
.	.	4c	.	[2f	.
.	.	4A	.	.	.
=33	=33	=33	=33	=33	=33
2r	1.d	2.B-y	0r	4f]	2f
.	.	.	.	4e	.
1G	.	.	.	4d	1b-y
.	.	4A	.	4c	.
.	.	1G	.	2B-y	.
2C	[2e	.	.	[2c	2g
=34	=34	=34	=34	=34	=34
2F	4e]	0r	0r	2c]	2a
.	4d	.	.	.	.
2G	1d	.	.	2B-y	1b-y
1E	.	.	.	2G	.
.	2c#i	.	.	[2g	4a
.	.	.	.	.	4g
=35	=35	=35	=35	=35	=35
[0D	0d	1r	0r	2g]	2b-y
.	.	.	.	4f	2a
.	.	.	.	4e	.
.	.	2r	.	2.f	1dd
.	.	2A	.	.	.
.	.	.	.	4g	.
=36	=36	=36	=36	=36	=36
1D]	0r	2A	0f	1a	1r
.	.	2A	.	.	.
1r	.	2.B-y	.	2r	[1b-y
.	.	.	.	2d	.
.	.	4A	.	.	.
=37	=37	=37	=37	=37	=37
1r	0r	1.G	0g	2d	1b-]
.	.	.	.	2d	.
1C	.	.	.	2.e	[1cc
.	.	[2c	.	.	.
.	.	.	.	4d	.
=38	=38	=38	=38	=38	=38
1F	0r	4c]	1a	2c	1cc]
.	.	4B-y	.	.	.
.	.	4A	.	2.f	.
.	.	4G	.	.	.
1D	.	2F	[1a	.	[1dd
.	.	.	.	4e	.
.	.	2f	.	4d	.
.	.	.	.	4c	.
=39	=39	=39	=39	=39	=39
0G	0B-y	2d	2a]	1B-y	1dd]
.	.	2B-y	4g	.	.
.	.	.	4f	.	.
.	.	2.d	1g	1r	1b-y
.	.	4e	.	.	.
=40	=40	=40	=40	=40	=40
0F	0c	2f	0a	0r	2.a
.	.	2A	.	.	.
.	.	.	.	.	4b-y
.	.	2A	.	.	1cc
.	.	2A	.	.	.
=41	=41	=41	=41	=41	=41
1BB-y	1d	2.B-y	1f	0r	0b-y
.	.	4A	.	.	.
1r	[1d	1G	1g	.	.
=42	=42	=42	=42	=42	=42
0r	2d]	0A	0e	2r	1a
.	4c#i	.	.	2a	.
.	4Bni	.	.	.	.
.	1c#i	.	.	2a	1ee
.	.	.	.	2a	.
=43	=43	=43	=43	=43	=43
1.D	0d	2.A	2.d	1a	2.ff
.	.	4G	4e	.	4ee
.	.	2A	2f	[1d	4dd
.	.	.	.	.	4cc
[2G	.	2B-y	[2g	.	[2b-y
=44	=44	=44	=44	=44	=44
2G]	1B-y	1.G	4g]	2d]	4b-]
.	.	.	4f	.	4cc
2G	.	.	2d	1g	2dd
1C	1c	.	1e	.	2cc
.	.	2A	.	2e	[2a
=45	=45	=45	=45	=45	=45
0D	0A	2F	[0d	2f	2a]
.	.	2G	.	2.d	1g
.	.	2A	.	.	.
.	.	.	.	4c	.
.	.	2d	.	2A	2f#i
=46	=46	=46	=46	=46	=46
1.G	2.G	2.d	1d]	2B-y	[0g
.	.	.	.	2.b-y	.
.	4A	4c	.	.	.
.	2B-y	2d	1r	.	.
.	.	.	.	4a	.
2C	[2c	2e	.	4g	.
.	.	.	.	4f	.
=47	=47	=47	=47	=47	=47
1C	4c]	0c	0r	4e	1g]
.	4B-y	.	.	4f	.
.	2G	.	.	1g	.
1r	1A	.	.	.	[1cc
.	.	.	.	2f#i	.
=48	=48	=48	=48	=48	=48
1r	[0G	0d	0r	0g	2cc]
.	.	.	.	.	4b-y
.	.	.	.	.	4a
1G	.	.	.	.	2.b-y
.	.	.	.	.	4cc
=49	=49	=49	=49	=49	=49
2.B-y	1G]	2r	0r	1r	2dd
.	.	1d	.	.	2g
4A	.	.	.	.	.
2G	1r	.	.	[1d	2b-y
2F	.	[2f	.	.	2a
=50	=50	=50	=50	=50	=50
1.B-y	0r	4f]	0r	1d]	1f
.	.	4e	.	.	.
.	.	1d	.	.	.
.	.	.	.	[1f	1r
2A	.	2c	.	.	.
=51	=51	=51	=51	=51	=51
2B-y	0r	2d	0r	2f]	1r
2.G	.	2.B-y	.	2e	.
.	.	.	.	1d	2r
4F	.	4A	.	.	.
2D	.	2F	.	.	[2b-y
=52	=52	=52	=52	=52	=52
2E	0r	2G	0r	1c	2b-]
2F	.	2A	.	.	1a
2D	.	1B-y	.	1d	.
[2d	.	.	.	.	2g
=53	=53	=53	=53	=53	=53
2d]	0r	1A	0a	1e	2.a
2c#i	.	.	.	.	.
.	.	.	.	.	4g
2d	.	1r	.	1d	2f
2D	.	.	.	.	4e
.	.	.	.	.	4d
=54	=54	=54	=54	=54	=54
2A	0r	1r	1.cc	2r	2e
2F	.	.	.	2.a	2f
1G	.	2r	.	.	2e
.	.	.	.	4g	.
.	.	[2G	2b-y	2g	[2d
=55	=55	=55	=55	=55	=55
1D	0r	2G]	1a	2a	2d]
.	.	2F	.	2d	1dd
1r	.	2G	1g	1e	.
.	.	[2g	.	.	2cc
=56	=56	=56	=56	=56	=56
1D	0d	2g]	1a	2.d	1.dd
.	.	2f#i	.	.	.
.	.	.	.	4c	.
1G	.	1g	1b-y	2B-y	.
.	.	.	.	2G	4cc
.	.	.	.	.	4b-y
=57	=57	=57	=57	=57	=57
2.F	1.f	1c	[0a	0A	1cc
4E	.	.	.	.	.
2D	.	2r	.	.	2dd
2C	2e	2c	.	.	2ee
=58	=58	=58	=58	=58	=58
1D	1d	2A	0a]	2r	2.ff
.	.	2F	.	2f	.
.	.	.	.	.	4dd
1r	1c	4A	.	2e	1ee
.	.	4B-y	.	.	.
.	.	4c	.	[2a	.
.	.	4A	.	.	.
=59	=59	=59	=59	=59	=59
0r	1d	1B-y	2r	2a]	1dd
.	.	.	1d	2g	.
.	1e	1A	.	2a	1r
.	.	.	2c	[2a	.
=60	=60	=60	=60	=60	=60
1D	[0d	1A	2.f	2a]	1r
.	.	.	.	2.d	.
.	.	.	4g	.	.
2.D	.	2.F	[1a	.	[1dd
.	.	.	.	4e	.
.	.	.	.	[2f	.
4E	.	4G	.	.	.
=61	=61	=61	=61	=61	=61
2F	0d]	2A	2a]	2f]	1dd]
2G	.	2B-y	2g	4e	.
.	.	.	.	4d	.
1D	.	2A	1f	1a	1dd
.	.	2F	.	.	.
=62	=62	=62	=62	=62	=62
1C	2r	2.c	1e	1r	1g
.	1G	.	.	.	.
.	.	4B-y	.	.	.
1D	.	1A	[1d	1a	2.dd
.	2F	.	.	.	.
.	.	.	.	.	4cc
=63	=63	=63	=63	=63	=63
1G	2.B-y	0r	2d]	1g	1b-y
.	.	.	2e	.	.
.	4c	.	.	.	.
1D	[1d	.	2.f	2f	2a
.	.	.	.	[2b-y	[2dd
.	.	.	8eL	.	.
.	.	.	8dJ	.	.
=64	=64	=64	=64	=64	=64
0r	2d]	0r	2f	4b-]	2dd]
.	.	.	.	4a	.
.	2c	.	2.e	1a	2ee
.	1B-y	.	.	.	2.ff
.	.	.	4d	.	.
.	.	.	[2d	2g	.
.	.	.	.	.	8eeL
.	.	.	.	.	8ddJ
=65	=65	=65	=65	=65	=65
0r	1A	0r	2d]	1a	2ff
.	.	.	2c	.	2.ee
.	[1G	.	1d	[1b-y	.
.	.	.	.	.	4dd
.	.	.	.	.	[2dd
=66	=66	=66	=66	=66	=66
1r	2G]	1r	1e	2b-]	2dd]
.	2A	.	.	4a	2cc#i
.	.	.	.	4g	.
2r	2.B-y	1d	1d	2f	[1dd
[2G	.	.	.	[2g	.
.	8AL	.	.	.	.
.	8GJ	.	.	.	.
=67	=67	=67	=67	=67	=67
2G]	2B-y	1d	0r	2g]	0dd_
2F	2.A	.	.	2a	.
2.G	.	2.B-y	.	2.b-y	.
.	4G	.	.	.	.
.	[2G	.	.	.	.
8FL	.	4c	.	8aL	.
8EJ	.	.	.	8gJ	.
=68	=68	=68	=68	=68	=68
1D	2G]	2d	0r	2b-y	1dd]
.	2F	2.d	.	2.a	.
1E-X	1G	.	.	.	1r
.	.	4B-y	.	4g	.
.	.	2c	.	[2g	.
=69	=69	=69	=69	=69	=69
1D	1A	2d	2r	2g]	0r
.	.	2A	1d	2f#i	.
2.G	1G	2.B-y	.	2g	.
.	.	.	2e	2b-y	.
4F	.	4c	.	.	.
=70	=70	=70	=70	=70	=70
2D	0r	1d	2.f	[0a	1.dd
1d	.	.	.	.	.
.	.	.	8eL	.	.
.	.	.	8dJ	.	.
.	.	1r	2f	.	.
2c	.	.	[2e	.	2ee
=71	=71	=71	=71	=71	=71
2.d	0r	0r	4e]	1a]	2.ff
.	.	.	4d	.	.
.	.	.	1d	.	.
8cL	.	.	.	.	8eeL
8B-yJ	.	.	.	.	8ddJ
1A	.	.	.	2r	2ff
.	.	.	2c	2a	[2ee
=72	=72	=72	=72	=72	=72
1B-y	2r	0r	1d	2f	4ee]
.	.	.	.	.	4dd
.	1G	.	.	1b-y	1dd
1r	.	.	1e	.	.
.	2A	.	.	4a	2cc#i
.	.	.	.	4g	.
=73	=73	=73	=73	=73	=73
2r	2.B-y	0r	[0d	2f	[0dd
1G	.	.	.	1g	.
.	8AL	.	.	.	.
.	8GJ	.	.	.	.
.	2B-y	.	.	.	.
2F	[2A	.	.	2a	.
=74	=74	=74	=74	=74	=74
2.G	4A]	1r	0d]	2.b-y	0dd]
.	4G	.	.	.	.
.	1G	.	.	.	.
8FL	.	.	.	8aL	.
8EJ	.	.	.	8gJ	.
1D	.	1d	.	2b-y	.
.	2F	.	.	[2a	.
=75	=75	=75	=75	=75	=75
1E-X	1G	2B-y	1r	4a]	1r
.	.	.	.	4g	.
.	.	2c	.	1g	.
1D	1A	2d	2r	.	1dd
.	.	2A	[2d	2f#i	.
=76	=76	=76	=76	=76	=76
[0G	[0Gl	2.B-y	2d]	[0gl	2dd
.	.	.	2d	.	1b-y
.	.	4c	.	.	.
.	.	2d	2B-y	.	.
.	.	[2e-i	2c	.	2g
=77	=77	=77	=77	=77	=77
1G]	0G_	2e-]	1d	0g_	1b-y
.	.	2d	.	.	.
1C	.	1c	1e	.	1cc
=78	=78	=78	=78	=78	=78
00Gl	00G]	00B-yl	00dl	00g]	00ddl
==	==	==	==	==	==
*-	*-	*-	*-	*-	*-
!!!system-decoration: [*]
!!!RDF**kern: i = editorial accidental
!!!RDF**kern: l = terminal long
!!!ENC: Benjamin Ory
!!!END: 2021/11/15
!!!EED: Benjamin Ory
!!!EEV: 2021/11/15
!!!YEC: Copyright 2021 Benjamin Ory, All Rights Reserved
!!!ONB: Translated from MusicXML on 2021/11/15
